assets/images/marquee_star.svg

<svg xmlns="http://www.w3.org/2000/svg" width="59" height="59" viewBox="0 0 59 59" fill="none">
  <path d="M29.5 0.921875L30.4597 14.8422C30.7051 18.3942 32.2271 21.7376 34.7448 24.2552C37.2624 26.7729 40.6058 28.2949 44.1578 28.5403L58.0781 29.5L44.1578 30.4597C40.6058 30.7051 37.2624 32.2271 34.7448 34.7448C32.2271 37.2624 30.7051 40.6058 30.4597 44.1578L29.5 58.0781L28.5403 44.1578C28.2949 40.6058 26.7729 37.2624 24.2552 34.7448C21.7376 32.2271 18.3942 30.7051 14.8422 30.4597L0.921875 29.5L14.8422 28.5403C18.3942 28.2949 21.7376 26.7729 24.2552 24.2552C26.7729 21.7376 28.2949 18.3942 28.5403 14.8422L29.5 0.921875Z" fill="white"/>
  <path d="M0.921875 0.921875L19.316 18.4771C22.0598 21.0959 25.707 22.5571 29.5 22.5571C33.293 22.5571 36.9402 21.0959 39.684 18.4771L58.0781 0.921875L40.5229 19.316C37.9041 22.0598 36.4429 25.707 36.4429 29.5C36.4429 33.293 37.9041 36.9402 40.5229 39.684L58.0781 58.0781L39.684 40.5229C36.9402 37.9041 33.293 36.4429 29.5 36.4429C25.707 36.4429 22.0598 37.9041 19.316 40.5229L0.921875 58.0781L18.4771 39.684C21.0959 36.9402 22.5571 33.293 22.5571 29.5C22.5571 25.707 21.0959 22.0598 18.4771 19.316L0.921875 0.921875Z" fill="white"/>
</svg>

<svg xmlns="http://www.w3.org/2000/svg" width="59" height="59" fill="none" viewBox="0 0 59 59"><path fill="#fff" d="m29.5.922.96 13.92A14.75 14.75 0 0 0 44.158 28.54l13.92.96-13.92.96A14.75 14.75 0 0 0 30.46 44.158l-.96 13.92-.96-13.92A14.75 14.75 0 0 0 14.842 30.46L.922 29.5l13.92-.96A14.75 14.75 0 0 0 28.54 14.842z"/><path fill="#fff" d="m.922.922 18.394 17.555a14.75 14.75 0 0 0 20.368 0L58.078.922 40.523 19.316a14.75 14.75 0 0 0 0 20.368l17.555 18.394-18.394-17.555a14.75 14.75 0 0 0-20.368 0L.922 58.078l17.555-18.394a14.75 14.75 0 0 0 0-20.368z"/></svg>
